X:86
T:Bonny at Morn
M:3/4
L:1/8
S:Edor (x3)
R:Waltz
K:Em
F2 |: "Em"B3 c BA | B3 E FG | "D"A3 G FE | D2 E2 F2
|1 "Em"B3 c BA | B3 E FG | "D"A2 F2 D2 | "Em"E6 F2
:|2 ED EF GA | B2 e2 d2 | B^c d2 F2 | E4 D2 ||:
"Em"E2 e2 e2 | E4 G2 | "D"F2 d2 d2 | D4 F2 | "Em"E3 F GA | B2 e2 d2 |
B^c d2 F2 |1 E4 D2 :|2 E6 |]
